icons/src/scalable/default/places/bookmark-missing-symbolic.svg

<svg version="1.1" viewBox="0 0 16 16" xmlns="http://www.w3.org/2000/svg">
 <g transform="translate(0 -.195)">
  <path d="m8 0.39-2.12 5.5-5.88 0.31 4.57 3.72-1.51 5.69 4.94-3.2 4 2.59v-2.932l-0.57-2.148 0.57-0.465v-1.455a1 1 0 0 1 1-1h2a1 1 0 0 1 0.016 0l0.984-0.8-5.88-0.31z" fill="#363636" opacity=".3"/>
  <path class="warning" d="m13 8v5h2v-5zm0 6v2h2v-2z" fill="#5294e2"/>
  <rect y=".195" width="16" height="16" fill="none"/>
 </g>
</svg>

<?xml version="1.0" encoding="UTF-8" standalone="no"?>
<svg
   width="16"
   height="16"
   version="1.1"
   id="svg7"
   sodipodi:docname="bookmark-missing-symbolic.svg"
   inkscape:version="1.1.2 (0a00cf5339, 2022-02-04)"
   xmlns:inkscape="http://www.inkscape.org/namespaces/inkscape"
   xmlns:sodipodi="http://sodipodi.sourceforge.net/DTD/sodipodi-0.dtd"
   xmlns="http://www.w3.org/2000/svg"
   xmlns:svg="http://www.w3.org/2000/svg">
  <sodipodi:namedview
     id="namedview9"
     pagecolor="#ffffff"
     bordercolor="#666666"
     borderopacity="1.0"
     inkscape:pageshadow="2"
     inkscape:pageopacity="0.0"
     inkscape:pagecheckerboard="0"
     showgrid="false"
     inkscape:zoom="47.0625"
     inkscape:cx="8"
     inkscape:cy="4.5577689"
     inkscape:window-width="1920"
     inkscape:window-height="1020"
     inkscape:window-x="0"
     inkscape:window-y="32"
     inkscape:window-maximized="1"
     inkscape:current-layer="svg7" />
  <defs
     id="defs3">
    <style
       id="current-color-scheme"
       type="text/css">.ColorScheme-Text { color:#363636; }</style>
  </defs>
  <g
     id="g357"
     transform="translate(0,-0.19499999)">
    <g
       id="g203">
      <path
         style="fill:currentColor"
         class="ColorScheme-Text"
         d="M 8,0.39 5.88,5.89 0,6.2 4.57,9.92 3.06,15.61 8,12.41 12,15 V 12.068 L 11.43,9.92 12,9.455 V 8 a 1,1 0 0 1 1,-1 h 2 a 1,1 0 0 1 0.016,0 L 16,6.2 10.12,5.89 Z"
         id="path2"
         opacity="0.3" />
      <path
         class="warning"
         d="m 13,8 v 5 h 2 V 8 Z m 0,6 v 2 h 2 v -2 z"
         id="path4"
         fill="#5294e2" />
    </g>
    <rect
       style="opacity:1;fill:none;fill-opacity:1;stroke:none;stroke-width:2;stroke-miterlimit:4;stroke-dasharray:none"
       id="rect227"
       width="16"
       height="16"
       x="0"
       y="0.19499999" />
  </g>
</svg>
